X: 400
%
U:~=!turn!
T: Miss Fogo
C:
O:Scotland
B:Keith Norman MacDonald : "The Skye collection of the best reels & strathspeys extant" : 1887
Z:Ralph Palmer
R:Reel
M:C|
L:1/8
K:G
c | TB2 (GB) dedc | TB2 GB {AB}cAAd | TB2 (GB) dedc | Bdce {/^c}dGG ::
f | ~g2 (dB) ~g2 (dB) | gg (dB) (cA)Af | ~g2 (dB) ~g2 (ec) | Bdce {/^c}dGG :|


